X: 8
T: Maudabawn Chapel
R: reel
M: 4/4
L: 1/8
K: Gmaj
EF|: G3 F E2 DB,| G,A,B,D E2 DB,| G,A,B,D GABd| gabg efga|
 ~g2 ga bgaf| gfed  effe| d2 gd  BcdB|1  AcBA  GEEF:|2  AcBA GEED||
|: E2 BE dEBE| Ed^cB AD (3FED|~E3 F GFGB|AF (3FFF DFAF|
 EBBA B3 d|BAGA B^cde| fd ~d2 gfe^c|1 dBAF  GEED:|2  dBAF  GEEF||

